X:1
T:A minor Daniel Belknap, 1800
T:Isaac Watts, 1706 On the Sudden Death of Mrs. Mary Peacock  88. 88. (L. M.)
T:Acton
T:Transcribed from The Evangelical Harmony, 1800.
%%score [ 1 2 3 4 ]
L:1/8
M:4/4
K:C
V:1 treble nm="Voice" snm="Tr"
V:2 treble nm="Voice" snm="C"
V:3 treble-8 nm="Tenor" snm="T"
V:4 bass nm="Bass" snm="B"
V:1
"^2. There     glory         sits   on    every     face;    There friendship smiles in every       eye;      There shall our   tongues relate          the grace, There shall our tongues re –""^1.  Farewell, bright soul, a short farewell,       Till    we shall  meet again        above:              In     the  sweet  groves where pleasures dwell,  In the sweet groves where" A4 | %1
 A4 B4 | c2 c2 d2 e2 | e6 e2 | e2 d2 c2 e2 | e4 d4 | c6 B2 | c2 d2 ed c2 | d2 d2 e4- | e4 B4 | %10
 A2 A2 B2 c2 | %11
"^1.  pleasures dwell,   And       trees  of   life   bear    fruits        of            love.""^2. –late  the  grace    That       led   us     homeward  to            the           sky." BA Bc B2 B2 | %12
 c2 B2 A2 B2 | (c2 A2) ^G4 | A8 |] %15
V:2
"^3. O'er all the names of Christ, our King,        Shall our  harmonious    voices        rove;        Our   hearts shall sound, from every string,  Our hearts shall sound, from""^4. Come, sovereign Lord, dear Savior, come,  Remove    these          separating        days;      Send   thy     bright wheels to  fetch us home; Send thy bright wheels to" E4 | %1
 E4 G4 | E2 E2 F2 E2 | E6 G2 | A2 GF E2 E2 | E4 G4 | G6 G2 | A2 GF E2 EF | G2 A2 G4- | G4 G4 | %10
 A2 c2 B2 A2 | %11
"^3. every          string,      The     wonders   of    his       blee  –  ding          love.""^4. fetch  us    home;     That     golden hour, how  long            it            stays!" G2 G2 G2 GF | %12
 E2 D2 E2 F2 | E4 E4 | E8 |] %15
V:3
"^5.  How long must we lie lingering here,       While saints around us take their flight:      Smiling     they        quit  this    dusky sphere,            Smiling they quit this""^6.  Sweet soul, we leave thee to thy rest;         Enjoy        thy      Jesus       and   thy    God,         Till       we,  from  bands  of      clay released,             Till  we, from bands of" A4 | %1
 c4 e4 | e2 e2 d2 c2 | B6 B2 | c2 B2 A2 B2 | c4 d4 | e6 ed | c2 B2 AB c2 | B2 A2 B4- | B4 B4 | %10
 c2 c2 d2 e2 | %11
"^5. dusky      sphere,     And     mount the hills of      heavenly                 light.""^6.  clay      released,   Spring   out  and climb the      shining                  road." ed cd e2 d2 | %12
 c2 f2 e2 d2 | c4 B4 | A8 |] %15
V:4
 A,4 | A,4 E,4 | A,2 A,2 ^G,2 A,2 | E,6 E,2 | A,2 B,2 C2 G,2 | A,4 B,4 | C6 E,2 | A,2 B,2 CB, A,2 | %8
 G,2 F,2 E,4- | E,4 E,4 | A,2 A,2 ^G,2 A,2 | E,2 E,2 E,2 G,2 | A,2 D2 C2 B,2 | A,4 E,4 | A,,8 |] %15

